X: 41313
T: Tunes Foundry, The
R: jig
M: 6/8
K: Bminor
|FBB Bcd|cAA ABc|{de} d2 B {ef}e d|fba {e}f2 e|
def {a} gfe|~f2 B d2 f|e2 e efe|dcB {cd}c A2:|
~d3 cde|dAA {c}BAA|fAA eAA|dcB cde|
~d3 cde|efg a2 g|fdd agg|edc d2 c:|

